X:584
T: Die schne Reiterei (282), S. 596
N: T0472
O: Luxemburg
S: Singendes Volk, Esch-Alzette, 1937 posth.]
N: Diekirch, fff Ordensschwester, 28.12.1934
R: ???]
M: 2/4
L: 1/8
K: D
 | DEFG | A2A2
BcdB | BAA2
GGGG | FFF2
EEAA | D2D2
DEFG | AAA2
BcdB | BAA2
AAAA | AAA2
DEFG | A2d2 | B2dB | A2z2
AAGG | F2F2 | D2A2 | D2z2

